static/hamburger.svg

<svg width="25" height="19" viewBox="0 0 25 19" fill="none" xmlns="http://www.w3.org/2000/svg">
<path d="M24.75 0.809418H0.25C0.1125 0.809418 0 0.899458 0 1.00951V2.61023C0 2.72028 0.1125 2.81032 0.25 2.81032H24.75C24.8875 2.81032 25 2.72028 25 2.61023V1.00951C25 0.899458 24.8875 0.809418 24.75 0.809418ZM24.75 16.4165H0.25C0.1125 16.4165 0 16.5065 0 16.6166V18.2173C0 18.3273 0.1125 18.4174 0.25 18.4174H24.75C24.8875 18.4174 25 18.3273 25 18.2173V16.6166C25 16.5065 24.8875 16.4165 24.75 16.4165ZM24.75 8.61295H0.25C0.1125 8.61295 0 8.70299 0 8.81304V10.4138C0 10.5238 0.1125 10.6139 0.25 10.6139H24.75C24.8875 10.6139 25 10.5238 25 10.4138V8.81304C25 8.70299 24.8875 8.61295 24.75 8.61295Z" fill="#353F99"/>
</svg>

<svg width="25" height="19" fill="none" xmlns="http://www.w3.org/2000/svg"><path d="M24.75.81H.25C.112.81 0 .9 0 1.01v1.6c0 .11.113.2.25.2h24.5c.137 0 .25-.09.25-.2v-1.6c0-.11-.113-.2-.25-.2zm0 15.606H.25c-.138 0-.25.09-.25.2v1.601c0 .11.113.2.25.2h24.5c.137 0 .25-.09.25-.2v-1.6c0-.11-.113-.2-.25-.2zm0-7.803H.25c-.138 0-.25.09-.25.2v1.6c0 .11.113.2.25.2h24.5c.137 0 .25-.09.25-.2v-1.6c0-.11-.113-.2-.25-.2z" fill="#353F99"/></svg>
